X: 1
T: crescendo
M: 2/4
L: 1/8
K: G
%%MIDI deltaloudness 20 
!mf!cdef|edcB|
!<(! cdef|!<)! edcB|AAAA|
!>(!  cdef|!>)! edcB|AAA|
!crescendo(! cdef  |!crescendo)!|edcB|AAA|
!diminuendo(! cdef |!diminuendo)!|edcB|AAA|
